src/actions/32/align-vertical-bottom-to-anchor.svg

<svg viewBox="0 0 32 32" xmlns="http://www.w3.org/2000/svg">
 <defs>
  <style type="text/css">.ColorScheme-Text {
        color:#2e3440;
      }</style>
 </defs>
 <path class="ColorScheme-Text" d="m4 4v12h10v-12h-10zm1 1h8v10h-8v-10zm13 1v10h10v-10h-10zm1 1h8v8h-8v-8zm-15 11v2h24v-2h-24zm14 4v6h10v-6h-10z" fill="currentColor"/>
</svg>

<svg xmlns="http://www.w3.org/2000/svg" viewBox="0 0 32 32">
  <defs
     id="defs3051">
    <style
       type="text/css"
       id="current-color-scheme">
      .ColorScheme-Text {
        color:#2e3440;
      }
      </style>
  </defs>
  <path
     style="fill:currentColor;fill-opacity:1;stroke:none" 
     d="M 4 4 L 4 16 L 14 16 L 14 4 L 4 4 z M 5 5 L 13 5 L 13 15 L 5 15 L 5 5 z M 18 6 L 18 16 L 28 16 L 28 6 L 18 6 z M 19 7 L 27 7 L 27 15 L 19 15 L 19 7 z M 4 18 L 4 20 L 28 20 L 28 18 L 4 18 z M 18 22 L 18 28 L 28 28 L 28 22 L 18 22 z "
     id="path8" 
     class="ColorScheme-Text"
     />
</svg>
